icons/1_Primary/DirectAdmin.svg

<svg width="1024" height="1024" fill="none" xmlns="http://www.w3.org/2000/svg"><g clip-path="url(#a)"><path d="M512 1024c282.77 0 512-229.23 512-512S794.77 0 512 0 0 229.23 0 512s229.23 512 512 512Z" fill="#9ABEFF"/><path d="M748 501.31 490.78 758.53l-.05.05-73.14-73.65 183.6-183.6-168.55-168.07-15.57-15.56 73.66-73.7 15.56 15.56L748 501.31Zm-234.38-13.94L367.86 635.72l18.67 18.67 146.8-147.31-19.71-19.71ZM380.77 354.52l-73.65 73.14 73.65 73.65L307.11 575l55 55 145.74-147.88-127.08-127.6Zm388.5 168.16-15.56-15.56-181.25 181.25-76 76L512 780l257.27-257.31v-.01Z" fill="#fff"/></g><defs><clipPath id="a"><path fill="#fff" d="M0 0h1024v1024H0z"/></clipPath></defs></svg>

<svg width="1024" height="1024" viewBox="0 0 1024 1024" fill="none" xmlns="http://www.w3.org/2000/svg">
<g clip-path="url(#clip0_2_2010)">
<path d="M512 1024C794.77 1024 1024 794.77 1024 512C1024 229.23 794.77 0 512 0C229.23 0 0 229.23 0 512C0 794.77 229.23 1024 512 1024Z" fill="#9ABEFF"/>
<path d="M748 501.31L490.78 758.53L490.73 758.58L417.59 684.93L601.19 501.33L432.64 333.26L417.07 317.7L490.73 244L506.29 259.56L748 501.31ZM513.62 487.37L367.86 635.72L386.53 654.39L533.33 507.08L513.62 487.37ZM380.77 354.52L307.12 427.66L380.77 501.31L307.11 575L362.11 630L507.85 482.12L380.77 354.52ZM769.27 522.68L753.71 507.12L572.46 688.37L496.46 764.37L512 780L769.27 522.69V522.68Z" fill="white"/>
</g>
<defs>
<clipPath id="clip0_2_2010">
<rect width="1024" height="1024" fill="white"/>
</clipPath>
</defs>
</svg>
